Papirus/64x64/apps/bastion.svg

<svg width="64" height="64" version="1.1" xmlns="http://www.w3.org/2000/svg">
 <path d="M 30,6 C 16.192881,6 5,17.192881 5,31 5.0038,36.729956 6.975833,42.284706 10.585938,46.734375 L 7,51 19,58 21.771484,54.576172 C 24.415096,55.508762 27.196732,55.990085 30,56 c 0.638158,-0.0023 1.275995,-0.02899 1.912109,-0.08008 L 34,60 45,56 43.515625,52.03125 c 3.574561,-2.300724 6.503417,-5.474939 8.509766,-9.222656 L 56,44 59,32 54.998047,30.933594 C 54.978003,26.383488 53.716535,21.925131 51.349609,18.039062 L 54,15 44,7 42.171875,9.173828 C 38.451401,7.095772 34.261483,6.003246 30,6 Z" style="opacity:.2"/>
 <path d="M 30,5 C 16.192881,5 5,16.192881 5,30 5.00381,35.729956 6.9758326,41.284706 10.585938,45.734375 L 7,50 19,57 21.771484,53.576172 C 24.415096,54.508762 27.196732,54.990085 30,55 c 0.638158,-0.0023 1.275995,-0.02899 1.912109,-0.08008 L 34,59 45,55 43.515625,51.03125 c 3.574561,-2.300724 6.503417,-5.474939 8.509766,-9.222656 L 56,43 59,31 54.998047,29.933594 C 54.978003,25.383488 53.716535,20.925131 51.349609,17.039062 L 54,14 44,6 42.171875,8.1738281 C 38.451401,6.0957716 34.261483,5.0032464 30,5 Z" style="fill:#38aff1"/>
 <path d="m30 5c-13.807119 0-25 11.192881-25 25 8.24e-5 0.12427 0.0136944 0.246998 0.015625 0.371094 0.334619-13.515715 11.388077-24.371094 24.984375-24.371094 4.261483 0.003246 8.451401 1.0957721 12.171875 3.1738281l1.828125-2.1738281 9.486328 7.589844 0.513672-0.589844-10-8-1.828125 2.1738281c-3.720474-2.078056-7.910392-3.1705821-12.171875-3.1738281zm21.691406 12.646484-0.341797 0.392578c2.366926 3.886069 3.628394 8.344426 3.648438 12.894532l3.767578 1.003906 0.234375-0.9375-4.001953-1.066406c-0.019018-4.317175-1.16861-8.545579-3.306641-12.28711zm-41.5 28.556641-3.191406 3.796875 0.5644531 0.328125 3.0214849-3.59375c-0.139522-0.171969-0.259923-0.356034-0.394532-0.53125zm33.621094 5.623047c-0.10028 0.066613-0.195551 0.139862-0.296875 0.205078l1.154297 3.087891 0.330078-0.119141-1.1875-3.173828z" style="fill:#ffffff;opacity:.2"/>
 <path d="M 29.414062,6.015625 C 15.878405,6.327852 5,17.389307 5,31 5.000963,32.448004 5.129933,33.884303 5.376953,35.294922 7.977947,37.049798 11.71794,38.72628 17,40.210938 V 47 l 7,1 0.755859,-6.042969 c 3.410906,0.547746 6.34493,0.688955 8.863282,0.519531 L 35,48 42,46 40.550781,40.929688 C 48.990802,37.337901 49,29 49,29 49,29 49.014218,6.3383332 29.414062,6.015625 Z" style="opacity:.2"/>
 <path d="M 29.414062 5.015625 C 15.878405 5.327852 5 16.389307 5 30 C 5.0009628 31.448004 5.1299334 32.884303 5.3769531 34.294922 C 7.9779472 36.049798 11.71794 37.72628 17 39.210938 L 17 46 L 24 47 L 24.755859 40.957031 C 28.166765 41.504777 31.100789 41.645986 33.619141 41.476562 L 35 47 L 42 45 L 40.550781 39.929688 C 48.990802 36.337901 49 28 49 28 C 49 28 49.014218 5.3383332 29.414062 5.015625 z " style="fill:#3f3f3f"/>
 <path d="m22.058594 21.185547c-1.31388 0.090578-2.058594 0.814453-2.058594 0.814453s1 7 5 7c5 0 5-2 5-2s0-2-5-5c-1.159401-0.69564-2.153078-0.8688-2.941406-0.814453zm23.941406 3.814453s-2 0-4 1c-1.264911 0.632456-3 3-3 3s1 2 4 2 3-6 3-6z" style="opacity:.2"/>
 <path d="m22.058594 20.185547c-1.31388 0.090578-2.058594 0.814453-2.058594 0.814453s1 7 5 7c5 0 5-2 5-2s0-2-5-5c-1.159401-0.69564-2.153078-0.8688-2.941406-0.814453zm23.941406 3.814453s-2 0-4 1c-1.264911 0.632456-3 3-3 3s1 2 4 2 3-6 3-6z" style="fill:#1bffe1"/>
 <path d="m32 8a3 1.5 0 0 0-3 1.5 3 1.5 0 0 0 3 1.5 3 1.5 0 0 0 3-1.5 3 1.5 0 0 0-3-1.5zm3.5 5a4.5 2.5 0 0 0-4.5 2.5 4.5 2.5 0 0 0 4.5 2.5 4.5 2.5 0 0 0 4.5-2.5 4.5 2.5 0 0 0-4.5-2.5zm1 7a2.5 1.5 0 0 0-2.5 1.5 2.5 1.5 0 0 0 2.5 1.5 2.5 1.5 0 0 0 2.5-1.5 2.5 1.5 0 0 0-2.5-1.5z" style="opacity:.2"/>
 <path d="m32 7a3 1.5 0 0 0-3 1.5 3 1.5 0 0 0 3 1.5 3 1.5 0 0 0 3-1.5 3 1.5 0 0 0-3-1.5zm3.5 5a4.5 2.5 0 0 0-4.5 2.5 4.5 2.5 0 0 0 4.5 2.5 4.5 2.5 0 0 0 4.5-2.5 4.5 2.5 0 0 0-4.5-2.5zm1 7a2.5 1.5 0 0 0-2.5 1.5 2.5 1.5 0 0 0 2.5 1.5 2.5 1.5 0 0 0 2.5-1.5 2.5 1.5 0 0 0-2.5-1.5z" style="fill:#df563d"/>
 <path d="M 29.414062 5.015625 C 15.878405 5.327852 5 16.389307 5 30 C 5.0000796 30.119683 5.013802 30.237907 5.015625 30.357422 C 5.3527961 17.043857 16.092831 6.3229058 29.414062 6.015625 C 47.526445 6.3138376 48.874047 25.468624 48.976562 28.408203 C 48.995556 28.1536 49 28 49 28 C 49 28 49.014218 5.3383332 29.414062 5.015625 z M 40.800781 40.806641 C 40.713797 40.845486 40.639624 40.891879 40.550781 40.929688 L 41.736328 45.076172 L 42 45 L 40.800781 40.806641 z " style="fill:#ffffff;opacity:.1"/>
 <path d="m22.058594 20.185547c-1.31388 0.090578-2.058594 0.814453-2.058594 0.814453s0.079111 0.42559 0.171875 0.861328c0.285587-0.21362 0.930449-0.609857 1.886719-0.675781 0.788328-0.054347 1.782005 0.118813 2.941406 0.814453 3.478781 2.087268 4.519786 3.670809 4.841797 4.453125 0.141367-0.258139 0.158203-0.453125 0.158203-0.453125s0-2-5-5c-1.159401-0.69564-2.153078-0.8688-2.941406-0.814453zm23.941406 3.814453s-2 0-4 1c-1.264911 0.632456-3 3-3 3s0.123162 0.225682 0.376953 0.517578c0.574496-0.722443 1.711365-2.061737 2.623047-2.517578 1.92049-0.960245 3.795649-0.996529 3.945312-0.998047 0.051755-0.594164 0.054688-1.001953 0.054688-1.001953z" style="fill:#ffffff;opacity:.2"/>
 <path d="m32 7a3 1.5 0 0 0-3 1.5 3 1.5 0 0 0 0.175781 0.5 3 1.5 0 0 1 2.824219-1 3 1.5 0 0 1 2.824219 1 3 1.5 0 0 0 0.175781-0.5 3 1.5 0 0 0-3-1.5zm3.5 5a4.5 2.5 0 0 0-4.5 2.5 4.5 2.5 0 0 0 0.09375 0.505859 4.5 2.5 0 0 1 4.40625-2.005859 4.5 2.5 0 0 1 4.40625 1.994141 4.5 2.5 0 0 0 0.09375-0.494141 4.5 2.5 0 0 0-4.5-2.5zm1 7a2.5 1.5 0 0 0-2.5 1.5 2.5 1.5 0 0 0 0.146484 0.5 2.5 1.5 0 0 1 2.353516-1 2.5 1.5 0 0 1 2.353516 1 2.5 1.5 0 0 0 0.146484-0.5 2.5 1.5 0 0 0-2.5-1.5z" style="fill:#ffffff;opacity:.1"/>
</svg>

<?xml version="1.0" encoding="UTF-8" standalone="no"?>
<svg
   id="_图层_1"
   version="1.1"
   viewBox="0 0 64 64" width="64" height="64"
   sodipodi:docname="bastion.svg"
   xml:space="preserve"
   inkscape:version="1.4 (e7c3feb100, 2024-10-09)"
   xmlns:inkscape="http://www.inkscape.org/namespaces/inkscape"
   xmlns:sodipodi="http://sodipodi.sourceforge.net/DTD/sodipodi-0.dtd"
   xmlns="http://www.w3.org/2000/svg"
   xmlns:svg="http://www.w3.org/2000/svg"><sodipodi:namedview
     id="namedview26"
     pagecolor="#505050"
     bordercolor="#eeeeee"
     borderopacity="1"
     inkscape:showpageshadow="0"
     inkscape:pageopacity="0"
     inkscape:pagecheckerboard="0"
     inkscape:deskcolor="#505050"
     inkscape:zoom="10.6875"
     inkscape:cx="32"
     inkscape:cy="32"
     inkscape:window-width="1920"
     inkscape:window-height="939"
     inkscape:window-x="0"
     inkscape:window-y="34"
     inkscape:window-maximized="1"
     inkscape:current-layer="_图层_1" /><!-- Generator: Adobe Illustrator 29.0.1, SVG Export Plug-In . SVG Version: 2.1.0 Build 192)  --><defs
     id="defs6"><inkscape:path-effect
       effect="fillet_chamfer"
       id="path-effect26"
       is_visible="true"
       lpeversion="1"
       nodesatellites_param="F,0,0,1,0,0,0,1 @ F,0,0,1,0,0,0,1 @ F,0,1,1,0,0,0,1 @ F,0,0,1,0,0,0,1 | F,0,0,1,0,0,0,1 @ F,0,0,1,0,0,0,1 @ F,0,0,1,0,0,0,1 @ F,0,0,1,0,0,0,1"
       radius="0"
       unit="px"
       method="auto"
       mode="F"
       chamfer_steps="1"
       flexible="false"
       use_knot_distance="true"
       apply_no_radius="true"
       apply_with_radius="true"
       only_selected="false"
       hide_knots="false" /><style
       id="style1">
      .st0 {
        fill-opacity: .5;
      }

      .st0, .st1, .st2, .st3, .st4, .st5, .st6, .st7 {
        fill: #fff;
      }

      .st8 {
        fill: #133c9a;
      }

      .st2, .st9 {
        display: none;
      }

      .st3 {
        fill-opacity: .2;
      }

      .st4 {
        fill-opacity: .9;
      }

      .st10 {
        fill: #3370ff;
      }

      .st11 {
        fill: url(#_未命名的渐变_3);
      }

      .st12 {
        fill: url(#_未命名的渐变);
      }

      .st5 {
        fill-opacity: .3;
      }

      .st6 {
        fill-opacity: 0;
      }

      .st7 {
        fill-opacity: .7;
      }

      .st13 {
        fill: #00d6b9;
      }

      .st14 {
        fill: url(#_未命名的渐变_2);
      }
    </style><radialGradient
       id="_未命名的渐变"
       data-name="未命名的渐变"
       cx="123.9"
       cy="-40.2"
       fx="123.9"
       fy="-40.2"
       r="59.4"
       gradientTransform="translate(-26.8 25.5) scale(.6 -.7)"
       gradientUnits="userSpaceOnUse"><stop
         offset="0"
         stop-color="#db202e"
         id="stop1" /><stop
         offset="1"
         stop-color="#e01b24"
         id="stop2" /></radialGradient><radialGradient
       id="_未命名的渐变_2"
       data-name="未命名的渐变 2"
       cx="67.6"
       cy="26.8"
       fx="67.6"
       fy="26.8"
       r="105.2"
       gradientTransform="translate(-26.6 25.3) scale(.6 -.7)"
       gradientUnits="userSpaceOnUse"><stop
         offset="0"
         stop-color="#ffb648"
         id="stop3" /><stop
         offset="1"
         stop-color="#ff7800"
         stop-opacity="0"
         id="stop4" /></radialGradient><radialGradient
       id="_未命名的渐变_3"
       data-name="未命名的渐变 3"
       cx="61.7"
       cy="18.6"
       fx="61.7"
       fy="18.6"
       r="68"
       gradientTransform="translate(-26.8 25.8) scale(.6 -.7)"
       gradientUnits="userSpaceOnUse"><stop
         offset="0"
         stop-color="#c64600"
         id="stop5" /><stop
         offset="1"
         stop-color="#a51d2d"
         id="stop6" /></radialGradient></defs><path
     class="st1"
     d="M47.5,64.1H13.8c-7.6,0-13.8-6.3-13.8-13.8V13.7C0,6.2,6.2,0,13.7,0h36.6c7.5,0,13.7,6.2,13.7,13.7v36.6c0,7.5-6.2,13.7-13.7,13.7h-2.9.1Z"
     id="path6"
     style="fill:#e4e4e4;fill-opacity:1" /><g
     id="g26"
     transform="translate(0.74853801,-0.40643275)"><path
       d="M 30,6 C 16.192881,6 5,17.192881 5,31 5.0038,36.729956 6.975833,42.284706 10.585938,46.734375 L 7,51 19,58 21.771484,54.576172 C 24.415096,55.508762 27.196732,55.990085 30,56 c 0.638158,-0.0023 1.275995,-0.02899 1.912109,-0.08008 L 34,60 45,56 43.515625,52.03125 c 3.574561,-2.300724 6.503417,-5.474939 8.509766,-9.222656 L 56,44 59,32 54.998047,30.933594 C 54.978003,26.383488 53.716535,21.925131 51.349609,18.039062 L 54,15 44,7 42.171875,9.173828 C 38.451401,7.095772 34.261483,6.003246 30,6 Z"
       style="opacity:0.2"
       id="path1" /><path
       d="M 30,5 C 16.192881,5 5,16.192881 5,30 5.00381,35.729956 6.9758326,41.284706 10.585938,45.734375 L 7,50 19,57 21.771484,53.576172 C 24.415096,54.508762 27.196732,54.990085 30,55 c 0.638158,-0.0023 1.275995,-0.02899 1.912109,-0.08008 L 34,59 45,55 43.515625,51.03125 c 3.574561,-2.300724 6.503417,-5.474939 8.509766,-9.222656 L 56,43 59,31 54.998047,29.933594 C 54.978003,25.383488 53.716535,20.925131 51.349609,17.039062 L 54,14 44,6 42.171875,8.1738281 C 38.451401,6.0957716 34.261483,5.0032464 30,5 Z"
       style="fill:#38aff1"
       id="path2" /><path
       d="M 30,5 C 16.192881,5 5,16.192881 5,30 c 8.24e-5,0.12427 0.013694,0.246998 0.015625,0.371094 C 5.350244,16.855379 16.403702,6 30,6 34.261483,6.00325 38.451401,7.0957721 42.171875,9.1738281 L 44,7 53.486328,14.589844 54,14 44,6 42.171875,8.1738281 C 38.451401,6.0957721 34.261483,5.003246 30,5 Z m 21.691406,12.646484 -0.341797,0.392578 c 2.366926,3.886069 3.628394,8.344426 3.648438,12.894532 L 58.765625,31.9375 59,31 54.998047,29.933594 c -0.01902,-4.317175 -1.16861,-8.545579 -3.306641,-12.28711 z m -41.5,28.556641 L 7,50 l 0.5644531,0.328125 3.0214849,-3.59375 c -0.139522,-0.171969 -0.259923,-0.356034 -0.394532,-0.53125 z M 43.8125,51.826172 c -0.10028,0.06661 -0.195551,0.139862 -0.296875,0.205078 L 44.669922,55.119141 45,55 Z"
       style="opacity:0.2;fill:#ffffff"
       id="path3" /><path
       d="M 29.414062,6.015625 C 15.878405,6.327852 5,17.389307 5,31 5.000963,32.448004 5.129933,33.884303 5.376953,35.294922 7.977947,37.049798 11.71794,38.72628 17,40.210938 V 47 l 7,1 0.755859,-6.042969 c 3.410906,0.547746 6.34493,0.688955 8.863282,0.519531 L 35,48 42,46 40.550781,40.929688 C 48.990802,37.337901 49,29 49,29 49,29 49.014218,6.3383332 29.414062,6.015625 Z"
       style="opacity:0.2"
       id="path4" /><path
       d="M 29.414062,5.015625 C 15.878405,5.327852 5,16.389307 5,30 5.0009628,31.448004 5.1299334,32.884303 5.3769531,34.294922 7.9779472,36.049798 11.71794,37.72628 17,39.210938 V 46 l 7,1 0.755859,-6.042969 c 3.410906,0.547746 6.34493,0.688955 8.863282,0.519531 L 35,47 42,45 40.550781,39.929688 C 48.990802,36.337901 49,28 49,28 49,28 49.014218,5.3383332 29.414062,5.015625 Z"
       style="fill:#3f3f3f"
       id="path5" /><path
       d="M 22.058594,21.185547 C 20.744714,21.276125 20,22 20,22 c 0,0 1,7 5,7 5,0 5,-2 5,-2 0,0 0,-2 -5,-5 -1.159401,-0.69564 -2.153078,-0.8688 -2.941406,-0.814453 z M 46,25 c 0,0 -2,0 -4,1 -1.264911,0.632456 -3,3 -3,3 0,0 1,2 4,2 3,0 3,-6 3,-6 z"
       style="opacity:0.2"
       id="path6-6" /><path
       d="M 22.058594,20.185547 C 20.744714,20.276125 20,21 20,21 c 0,0 1,7 5,7 5,0 5,-2 5,-2 0,0 0,-2 -5,-5 -1.159401,-0.69564 -2.153078,-0.8688 -2.941406,-0.814453 z M 46,24 c 0,0 -2,0 -4,1 -1.264911,0.632456 -3,3 -3,3 0,0 1,2 4,2 3,0 3,-6 3,-6 z"
       style="fill:#1bffe1"
       id="path7" /><path
       d="M 32,8 A 3,1.5 0 0 0 29,9.5 3,1.5 0 0 0 32,11 3,1.5 0 0 0 35,9.5 3,1.5 0 0 0 32,8 Z m 3.5,5 A 4.5,2.5 0 0 0 31,15.5 4.5,2.5 0 0 0 35.5,18 4.5,2.5 0 0 0 40,15.5 4.5,2.5 0 0 0 35.5,13 Z m 1,7 A 2.5,1.5 0 0 0 34,21.5 2.5,1.5 0 0 0 36.5,23 2.5,1.5 0 0 0 39,21.5 2.5,1.5 0 0 0 36.5,20 Z"
       style="opacity:0.2"
       id="path8" /><path
       d="M 32,7 A 3,1.5 0 0 0 29,8.5 3,1.5 0 0 0 32,10 3,1.5 0 0 0 35,8.5 3,1.5 0 0 0 32,7 Z m 3.5,5 A 4.5,2.5 0 0 0 31,14.5 4.5,2.5 0 0 0 35.5,17 4.5,2.5 0 0 0 40,14.5 4.5,2.5 0 0 0 35.5,12 Z m 1,7 A 2.5,1.5 0 0 0 34,20.5 2.5,1.5 0 0 0 36.5,22 2.5,1.5 0 0 0 39,20.5 2.5,1.5 0 0 0 36.5,19 Z"
       style="fill:#df563d"
       id="path9" /><path
       d="M 29.414062,5.015625 C 15.878405,5.327852 5,16.389307 5,30 c 7.96e-5,0.119683 0.013802,0.237907 0.015625,0.357422 C 5.3527961,17.043857 16.092831,6.3229058 29.414062,6.015625 47.526445,6.3138376 48.874047,25.468624 48.976562,28.408203 48.995556,28.1536 49,28 49,28 49,28 49.014218,5.3383332 29.414062,5.015625 Z m 11.386719,35.791016 c -0.08698,0.03885 -0.161157,0.08524 -0.25,0.123047 L 41.736328,45.076172 42,45 Z"
       style="opacity:0.1;fill:#ffffff"
       id="path10" /><path
       d="M 22.058594,20.185547 C 20.744714,20.276125 20,21 20,21 c 0,0 0.07911,0.42559 0.171875,0.861328 0.285587,-0.21362 0.930449,-0.609857 1.886719,-0.675781 C 22.846922,21.1312 23.840599,21.30436 25,22 c 3.478781,2.087268 4.519786,3.670809 4.841797,4.453125 C 29.983164,26.194986 30,26 30,26 c 0,0 0,-2 -5,-5 -1.159401,-0.69564 -2.153078,-0.8688 -2.941406,-0.814453 z M 46,24 c 0,0 -2,0 -4,1 -1.264911,0.632456 -3,3 -3,3 0,0 0.123162,0.225682 0.376953,0.517578 C 39.951449,27.795135 41.088318,26.455841 42,26 43.92049,25.039755 45.795649,25.003471 45.945312,25.001953 45.997067,24.407789 46,24 46,24 Z"
       style="opacity:0.2;fill:#ffffff"
       id="path11" /><path
       d="M 32,7 A 3,1.5 0 0 0 29,8.5 3,1.5 0 0 0 29.175781,9 3,1.5 0 0 1 32,8 3,1.5 0 0 1 34.824219,9 3,1.5 0 0 0 35,8.5 3,1.5 0 0 0 32,7 Z m 3.5,5 A 4.5,2.5 0 0 0 31,14.5 4.5,2.5 0 0 0 31.09375,15.005859 4.5,2.5 0 0 1 35.5,13 4.5,2.5 0 0 1 39.90625,14.994141 4.5,2.5 0 0 0 40,14.5 4.5,2.5 0 0 0 35.5,12 Z m 1,7 A 2.5,1.5 0 0 0 34,20.5 2.5,1.5 0 0 0 34.146484,21 2.5,1.5 0 0 1 36.5,20 2.5,1.5 0 0 1 38.853516,21 2.5,1.5 0 0 0 39,20.5 2.5,1.5 0 0 0 36.5,19 Z"
       style="opacity:0.1;fill:#ffffff"
       id="path12" /></g></svg>
